src/svg/icon-female.svg

<svg width="12" height="30" viewBox="0 0 12 30" fill="none" xmlns="http://www.w3.org/2000/svg">
<path d="M6.00173 5.56098C7.45435 5.56098 8.63193 4.31611 8.63193 2.78049C8.63193 1.24487 7.45435 0 6.00173 0C4.54912 0 3.37154 1.24487 3.37154 2.78049C3.37154 4.31611 4.54912 5.56098 6.00173 5.56098Z" fill="currentColor"/>
<path d="M10.416 16.9382C11.0948 16.3073 11.531 15.385 11.531 14.3588V9.43229C11.531 7.53586 10.0782 6 8.28423 6H3.72233C1.9284 6 0.475541 7.53586 0.475541 9.43229V14.3588C0.475541 15.385 0.908445 16.3073 1.5906 16.9382L0 21.2303H2.8762V28.3064C2.8762 29.1523 3.49604 29.8908 4.30282 29.9185C5.13583 29.9463 5.8147 29.2425 5.8147 28.3688V21.2303H6.22465V28.3064C6.22465 29.1523 6.84121 29.8908 7.65127 29.9185C8.48428 29.9463 9.16316 29.2425 9.16316 28.3688V21.2303H12L10.416 16.9382ZM2.8762 13.4366L2.47281 14.5391V9.73738C2.47281 9.61603 2.56136 9.51896 2.67614 9.51896C2.79093 9.51896 2.87948 9.61604 2.87948 9.73738V13.4366H2.8762ZM9.56327 14.6466L9.15988 13.5441V9.73738C9.15988 9.61603 9.24843 9.51896 9.35993 9.51896C9.48128 9.51896 9.56655 9.61604 9.56655 9.73738V14.6466H9.56327Z" fill="currentColor"/>
</svg>

<svg xmlns="http://www.w3.org/2000/svg" width="12" height="30" fill="none" viewBox="0 0 12 30"><path fill="currentColor" d="M6.002 5.561c1.452 0 2.63-1.245 2.63-2.78C8.632 1.244 7.454 0 6.002 0c-1.453 0-2.63 1.245-2.63 2.78 0 1.536 1.177 2.781 2.63 2.781m4.414 11.377a3.52 3.52 0 0 0 1.115-2.58V9.433C11.531 7.536 10.078 6 8.284 6H3.722C1.928 6 .476 7.536.476 9.432v4.927c0 1.026.432 1.948 1.115 2.58L0 21.23h2.876v7.076c0 .846.62 1.585 1.427 1.613.833.027 1.512-.677 1.512-1.55V21.23h.41v7.076c0 .846.616 1.585 1.426 1.613.833.027 1.512-.677 1.512-1.55V21.23H12zm-7.54-3.501-.403 1.102V9.737c0-.121.088-.218.203-.218s.203.097.203.218v3.7zm6.687 1.21-.403-1.103V9.737c0-.121.088-.218.2-.218.121 0 .207.097.207.218v4.91z"/></svg>
